svgs/regular/filter.svg

<svg xmlns="http://www.w3.org/2000/svg" viewBox="0 0 512 512"><!--! Font Awesome Pro 6.4.0 by @fontawesome - https://fontawesome.com License - https://fontawesome.com/license (Commercial License) Copyright 2023 Fonticons, Inc. --><path d="M0 73.7C0 50.7 18.7 32 41.7 32H470.3c23 0 41.7 18.7 41.7 41.7c0 9.6-3.3 18.9-9.4 26.3L336 304.5V447.7c0 17.8-14.5 32.3-32.3 32.3c-7.3 0-14.4-2.5-20.1-7l-92.5-73.4c-9.6-7.6-15.1-19.1-15.1-31.3V304.5L9.4 100C3.3 92.6 0 83.3 0 73.7zM55 80L218.6 280.8c3.5 4.3 5.4 9.6 5.4 15.2v68.4l64 50.8V296c0-5.5 1.9-10.9 5.4-15.2L457 80H55z"/></svg>

<svg xmlns="http://www.w3.org/2000/svg" viewBox="0 0 512 512"><!--! Font Awesome Pro 6.3.0 by @fontawesome - https://fontawesome.com License - https://fontawesome.com/license (Commercial License) Copyright 2023 Fonticons, Inc. --><path d="M0 73.7C0 50.67 18.67 32 41.7 32H470.3C493.3 32 512 50.67 512 73.7C512 83.3 508.7 92.6 502.6 100L336 304.5V447.7C336 465.5 321.5 480 303.7 480C296.4 480 289.3 477.5 283.6 472.1L191.1 399.6C181.6 392 176 380.5 176 368.3V304.5L9.373 100C3.311 92.6 0 83.3 0 73.7V73.7zM54.96 80L218.6 280.8C222.1 285.1 224 290.5 224 296V364.4L288 415.2V296C288 290.5 289.9 285.1 293.4 280.8L457 80H54.96z"/></svg>
